X:418
T: Zhihuai xiaodiao
N: C2036
O: China,Anhui Bengbu
S: III, 521]
R: Xiaodiao]
M: 2/4
L: 1/16
K: A
e2feecB2 | e2feecB2 | e2eFA2e2 | c2cBA4 |
B2ABe3c | B2cBABGF | E2F2B2G2 | F2GFE4 |
B2BBF2B2 | BAFfE4 | B2BBecB2 | ABAFE4 |
B2ABe2ec | B2B2ABGF | E2F2G2GE | F4E4

@@@ Tune index: 6973
